public/flags/AL.svg

<svg fill="none" height="53" viewBox="0 0 61 53" width="61" xmlns="http://www.w3.org/2000/svg" xmlns:xlink="http://www.w3.org/1999/xlink"><mask id="a" height="43" maskUnits="userSpaceOnUse" width="59" x="1" y="3"><rect fill="#fff" height="42.5" rx="4.24286" width="59" x="1" y="3"/></mask><g mask="url(#a)"><path d="m1 3h59v42.5h-59z" fill="#ee343c"/><path clip-rule="evenodd" d="m27.1089 12.3301c-.4777-.4817-1.2303-.5564-1.7934-.1778l-1.2384.8326c-.8974.6034-.8133 1.9497.1523 2.4365l2.6836 1.3532c.4768.2404.7775.7289.7775 1.2628v.5483c0 .7811-.6332 1.4143-1.4143 1.4143h-1.0588c-.2212 0-.4393-.0519-.6368-.1515l-4.4012-2.2192c-.5471-.2759-1.2096-.1681-1.641.267l-.7154.7215c-.6765.6822-.4904 1.826.3675 2.2586l1.9931 1.005c.8447.4259.9183 1.6038.1332 2.1316-.912.6132-.6316 2.0224.4457 2.2397l1.1702.236c1.1446.2308 1.4808 1.7046.5495 2.4089l-1.0691.8087c-.6923.5236-.322 1.627.546 1.627.0746 0 .1489-.0092.2213-.0274l2.6397-.6656c1.0161-.2561 1.8158.8716 1.2379 1.7458-.5043.763.0428 1.7806.9574 1.7806h1.2168c.5151 0 .9722.3303 1.1339.8194.3611 1.0926 1.9067 1.0926 2.2678 0 .1617-.4891.6188-.8194 1.1339-.8194h1.2168c.9146 0 1.4618-1.0176.9574-1.7806-.5779-.8742.2218-2.0019 1.238-1.7458l2.6397.6656c.0723.0182.1466.0274.2212.0274.868 0 1.2383-1.1034.546-1.627l-1.0691-.8087c-.9312-.7043-.5951-2.1781.5495-2.4089l1.1702-.236c1.0773-.2173 1.3578-1.6265.4457-2.2397-.7851-.5278-.7114-1.7057.1333-2.1316l1.993-1.005c.8579-.4326 1.044-1.5764.3675-2.2586l-.7154-.7215c-.4314-.4351-1.0939-.5429-1.641-.267l-4.4012 2.2192c-.1975.0996-.4156.1515-.6367.1515h-1.0589c-.7811 0-1.4143-.6332-1.4143-1.4143v-.5483c0-.5339.3007-1.0224.7775-1.2628.8293-.4181 1.8174-.9164 2.6841-1.3534.9655-.4868 1.0493-1.8329.1519-2.4363l-1.2385-.8326c-.5631-.3786-1.3156-.3039-1.7934.1778l-2.3868 2.4071c-.5533.558-1.4553.558-2.0085 0z" fill="#262626" fill-rule="evenodd"/></g></svg>

<svg width="61" height="53" viewBox="0 0 61 53" fill="none" xmlns="http://www.w3.org/2000/svg">
<mask id="mask0" mask-type="alpha" maskUnits="userSpaceOnUse" x="1" y="3" width="59" height="43">
<rect x="1" y="3" width="59" height="42.5" rx="4.24286" fill="white"/>
</mask>
<g mask="url(#mask0)">
<rect x="1" y="3" width="59" height="42.5" fill="#EE343C"/>
<path fill-rule="evenodd" clip-rule="evenodd" d="M27.1089 12.3301C26.6312 11.8484 25.8786 11.7737 25.3155 12.1523L24.0771 12.9849C23.1797 13.5883 23.2638 14.9346 24.2294 15.4214L26.913 16.7746C27.3898 17.015 27.6905 17.5035 27.6905 18.0374V18.5857C27.6905 19.3668 27.0573 20 26.2762 20H25.2174C24.9962 20 24.7781 19.9481 24.5806 19.8485L20.1794 17.6293C19.6323 17.3534 18.9698 17.4612 18.5384 17.8963L17.823 18.6178C17.1465 19.3 17.3326 20.4438 18.1905 20.8764L20.1836 21.8814C21.0283 22.3073 21.1019 23.4852 20.3168 24.013V24.013C19.4048 24.6262 19.6852 26.0354 20.7625 26.2527L21.9327 26.4887C23.0773 26.7195 23.4135 28.1933 22.4822 28.8976L21.4131 29.7063C20.7208 30.2299 21.0911 31.3333 21.9591 31.3333V31.3333C22.0337 31.3333 22.108 31.3241 22.1804 31.3059L24.8201 30.6403C25.8362 30.3842 26.6359 31.5119 26.058 32.3861V32.3861C25.5537 33.1491 26.1008 34.1667 27.0154 34.1667H28.2322C28.7473 34.1667 29.2044 34.497 29.3661 34.9861V34.9861C29.7272 36.0787 31.2728 36.0787 31.6339 34.9861V34.9861C31.7956 34.497 32.2527 34.1667 32.7678 34.1667H33.9846C34.8992 34.1667 35.4464 33.1491 34.942 32.3861V32.3861C34.3641 31.5119 35.1638 30.3842 36.18 30.6403L38.8197 31.3059C38.892 31.3241 38.9663 31.3333 39.0409 31.3333V31.3333C39.9089 31.3333 40.2792 30.2299 39.5869 29.7063L38.5178 28.8976C37.5866 28.1933 37.9227 26.7195 39.0673 26.4887L40.2375 26.2527C41.3148 26.0354 41.5953 24.6262 40.6832 24.013V24.013C39.8981 23.4852 39.9718 22.3073 40.8165 21.8814L42.8095 20.8764C43.6674 20.4438 43.8535 19.3 43.177 18.6178L42.4616 17.8963C42.0302 17.4612 41.3677 17.3534 40.8206 17.6293L36.4194 19.8485C36.2219 19.9481 36.0038 20 35.7827 20H34.7238C33.9427 20 33.3095 19.3668 33.3095 18.5857V18.0374C33.3095 17.5035 33.6102 17.015 34.087 16.7746C34.9163 16.3565 35.9044 15.8582 36.7711 15.4212C37.7366 14.9344 37.8204 13.5883 36.923 12.9849L35.6845 12.1523C35.1214 11.7737 34.3689 11.8484 33.8911 12.3301L31.5043 14.7372C30.951 15.2952 30.049 15.2952 29.4958 14.7372L27.1089 12.3301Z" fill="#262626"/>
</g>
</svg>
